svg/stadium_variant.svg

<svg xmlns="http://www.w3.org/2000/svg" viewBox="0 0 24 24"><path d="M5 3h2l3 2-3 2v1.33C8.47 8.12 10.18 8 12 8s3.53.12 5 .33V3h2l3 2-3 2v1.71c1.85.46 3 1.09 3 1.79 0 1.38-4.5 2.5-10 2.5S2 11.88 2 10.5c0-.7 1.15-1.33 3-1.79zm7 6.5c-3.31 0-5 .17-5 1s1.69 1 5 1 5-.17 5-1-1.69-1-5-1m0 5.25c3.81 0 7.2-.67 9.4-1.7L20 21h-5v-2a2 2 0 0 0-2-2h-2a2 2 0 0 0-2 2v2H4l-1.4-7.95c2.2 1.03 5.59 1.7 9.4 1.7"/></svg>

<?xml version="1.0" encoding="UTF-8"?><!DOCTYPE svg PUBLIC "-//W3C//DTD SVG 1.1//EN" "http://www.w3.org/Graphics/SVG/1.1/DTD/svg11.dtd"><svg xmlns="http://www.w3.org/2000/svg" xmlns:xlink="http://www.w3.org/1999/xlink" version="1.1" id="mdi-stadium-variant" width="24" height="24" viewBox="0 0 24 24"><path d="M5,3H7L10,5L7,7V8.33C8.47,8.12 10.18,8 12,8C13.82,8 15.53,8.12 17,8.33V3H19L22,5L19,7V8.71C20.85,9.17 22,9.8 22,10.5C22,11.88 17.5,13 12,13C6.5,13 2,11.88 2,10.5C2,9.8 3.15,9.17 5,8.71V3M12,9.5C8.69,9.5 7,9.67 7,10.5C7,11.33 8.69,11.5 12,11.5C15.31,11.5 17,11.33 17,10.5C17,9.67 15.31,9.5 12,9.5M12,14.75C15.81,14.75 19.2,14.08 21.4,13.05L20,21H15V19A2,2 0 0,0 13,17H11A2,2 0 0,0 9,19V21H4L2.6,13.05C4.8,14.08 8.19,14.75 12,14.75Z" /></svg>
